flaticon/transport/snowplow.svg

<svg xmlns="http://www.w3.org/2000/svg" width="32" height="32" viewBox="0 0 24 24">
    <path d="M17.59375 11.609375L17.59375 6.015625 6.40625 6.015625 6.40625 11.609375zM7.203125 6.8125L16.796875 6.8125 16.796875 10.8125 13.757812 10.8125 15.078125 9.492188C15.238281 9.332031 15.238281 9.09375 15.078125 8.933594 14.917969 8.773438 14.679688 8.773438 14.519531 8.933594L12.640625 10.8125 10.160156 10.8125 11.480469 9.492188C11.640625 9.332031 11.640625 9.09375 11.480469 8.933594 11.320312 8.773438 11.082031 8.773438 10.921875 8.933594L9.042969 10.8125 7.203125 10.8125zM7.203125 14.40625L4.007812 14.40625C3.765625 14.40625 3.605469 14.566406 3.605469 14.808594L3.605469 16.804688C3.605469 17.046875 3.765625 17.207031 4.007812 17.207031L7.203125 17.207031C7.445312 17.207031 7.605469 17.046875 7.605469 16.804688L7.605469 14.808594C7.605469 14.566406 7.445312 14.40625 7.203125 14.40625zM6.804688 16.40625L4.40625 16.40625 4.40625 15.207031 6.804688 15.207031zM19.992188 14.40625L16.796875 14.40625C16.554688 14.40625 16.394531 14.566406 16.394531 14.808594L16.394531 16.804688C16.394531 17.046875 16.554688 17.207031 16.796875 17.207031L19.992188 17.207031C20.234375 17.207031 20.394531 17.046875 20.394531 16.804688L20.394531 14.808594C20.394531 14.566406 20.234375 14.40625 19.992188 14.40625zM19.59375 16.40625L17.195312 16.40625 17.195312 15.207031 19.59375 15.207031zM10.402344 15.207031L13.597656 15.207031C13.839844 15.207031 14 15.046875 14 14.808594 14 14.566406 13.839844 14.40625 13.597656 14.40625L10.402344 14.40625C10.160156 14.40625 10 14.566406 10 14.808594 10 15.046875 10.160156 15.207031 10.402344 15.207031zM14.796875 16.007812L9.203125 16.007812C8.960938 16.007812 8.800781 16.167969 8.800781 16.40625 8.800781 16.644531 8.960938 16.804688 9.203125 16.804688L14.796875 16.804688C15.039062 16.804688 15.199219 16.644531 15.199219 16.40625 15.199219 16.167969 15.039062 16.007812 14.796875 16.007812zM14.796875 16.007812"/>
    <path d="M 23.191406 21.003906 C 23.191406 20.003906 23.46875 19.125 23.871094 18.683594 C 23.988281 18.566406 24.03125 18.40625 23.949219 18.246094 C 23.910156 18.085938 23.75 18.003906 23.589844 18.003906 L 22.390625 18.003906 L 22.390625 16.007812 C 22.390625 14.382812 21.164062 13.035156 19.59375 12.835938 L 19.59375 9.210938 L 20.433594 9.210938 L 20.433594 10.089844 C 20.433594 10.492188 20.753906 10.8125 21.152344 10.8125 L 22.070312 10.8125 C 22.472656 10.8125 22.792969 10.492188 22.792969 10.089844 L 22.792969 7.574219 C 22.792969 7.175781 22.472656 6.855469 22.070312 6.855469 L 21.152344 6.855469 C 20.753906 6.855469 20.433594 7.175781 20.433594 7.574219 L 20.433594 8.414062 L 19.59375 8.414062 L 19.59375 4.417969 C 19.59375 4.175781 19.433594 4.015625 19.195312 4.015625 L 18.394531 4.015625 L 18.394531 2.816406 C 18.394531 2.578125 18.234375 2.417969 17.996094 2.417969 L 17.996094 0.417969 C 17.996094 0.300781 17.957031 0.101562 17.835938 0.0585938 C 17.714844 0.0195312 17.554688 -0.0195312 17.4375 0.0585938 L 15.835938 0.859375 C 15.675781 0.9375 15.597656 1.058594 15.597656 1.21875 L 15.597656 2.417969 C 15.355469 2.417969 15.199219 2.578125 15.199219 2.816406 L 15.199219 4.015625 L 8.800781 4.015625 L 8.800781 2.816406 C 8.800781 2.578125 8.644531 2.417969 8.402344 2.417969 L 8.402344 1.21875 C 8.402344 1.058594 8.324219 0.9375 8.203125 0.859375 L 6.605469 0.0585938 C 6.484375 -0.0195312 6.324219 -0.0195312 6.203125 0.0585938 C 6.085938 0.140625 6.003906 0.300781 6.003906 0.417969 L 6.003906 2.417969 C 5.765625 2.417969 5.605469 2.578125 5.605469 2.816406 L 5.605469 4.015625 L 4.804688 4.015625 C 4.566406 4.015625 4.40625 4.175781 4.40625 4.417969 L 4.40625 8.414062 L 3.566406 8.414062 L 3.566406 7.574219 C 3.566406 7.175781 3.246094 6.855469 2.847656 6.855469 L 1.929688 6.855469 C 1.527344 6.855469 1.207031 7.175781 1.207031 7.574219 L 1.207031 10.089844 C 1.207031 10.492188 1.527344 10.8125 1.929688 10.8125 L 2.886719 10.8125 C 3.289062 10.8125 3.605469 10.492188 3.566406 10.089844 L 3.566406 9.210938 L 4.40625 9.210938 L 4.40625 12.835938 C 2.835938 13.035156 1.609375 14.382812 1.609375 16.007812 L 1.609375 18.003906 L 0.410156 18.003906 C 0.25 18.003906 0.128906 18.085938 0.0507812 18.246094 C -0.03125 18.40625 0.0117188 18.566406 0.128906 18.683594 C 0.53125 19.125 0.808594 20.003906 0.808594 21.003906 C 0.808594 22 0.53125 22.882812 0.128906 23.320312 C 0.0117188 23.441406 0.0117188 23.601562 0.0507812 23.761719 C 0.0898438 23.921875 0.25 24 0.410156 24 L 23.589844 24 C 23.75 24 23.910156 23.921875 23.949219 23.761719 C 24.03125 23.601562 23.988281 23.441406 23.871094 23.320312 C 23.46875 22.882812 23.191406 22 23.191406 21.003906 Z M 21.191406 7.613281 L 21.992188 7.613281 L 21.992188 10.011719 L 21.191406 10.011719 Z M 2.808594 10.011719 L 2.007812 10.011719 L 2.007812 7.613281 L 2.808594 7.613281 Z M 16.394531 1.457031 L 17.195312 1.058594 L 17.195312 2.417969 L 16.394531 2.417969 Z M 15.996094 3.21875 L 17.59375 3.21875 L 17.59375 4.015625 L 15.996094 4.015625 Z M 6.804688 1.058594 L 7.605469 1.457031 L 7.605469 2.417969 L 6.804688 2.417969 Z M 6.40625 3.21875 L 8.003906 3.21875 L 8.003906 4.015625 L 6.40625 4.015625 Z M 5.207031 4.816406 L 18.792969 4.816406 L 18.792969 12.808594 L 5.207031 12.808594 Z M 2.40625 16.007812 C 2.40625 14.6875 3.488281 13.609375 4.804688 13.609375 L 19.195312 13.609375 C 20.511719 13.609375 21.59375 14.6875 21.59375 16.007812 L 21.59375 18.003906 L 2.40625 18.003906 Z M 1.609375 18.804688 L 22.832031 18.804688 C 22.574219 19.355469 22.417969 20.042969 22.394531 20.800781 L 1.605469 20.800781 C 1.582031 20.042969 1.425781 19.355469 1.167969 18.804688 Z M 1.167969 23.199219 C 1.378906 22.746094 1.523438 22.203125 1.582031 21.601562 L 22.417969 21.601562 C 22.476562 22.203125 22.621094 22.746094 22.832031 23.199219 Z M 1.167969 23.199219"/>
</svg>

<svg xmlns="http://www.w3.org/2000/svg" width="32" height="32" viewBox="0 0 24 24">
    <path d="M17.594 11.61V6.015H6.406v5.593zM7.204 6.812h9.593v4h-3.04l1.321-1.32a.385.385 0 0 0 0-.56.385.385 0 0 0-.558 0l-1.88 1.88h-2.48l1.32-1.32a.385.385 0 0 0 0-.56.385.385 0 0 0-.558 0l-1.879 1.88h-1.84zm0 0M7.203 14.406H4.008c-.242 0-.403.16-.403.403v1.996c0 .242.16.402.403.402h3.195c.242 0 .402-.16.402-.402v-1.996c0-.243-.16-.403-.402-.403zm-.398 2H4.406v-1.199h2.399zm0 0M19.992 14.406h-3.195c-.242 0-.402.16-.402.403v1.996c0 .242.16.402.402.402h3.195c.242 0 .403-.16.403-.402v-1.996c0-.243-.16-.403-.403-.403zm-.398 2h-2.399v-1.199h2.399zm0 0M10.402 15.207h3.196c.242 0 .402-.16.402-.398 0-.243-.16-.403-.402-.403h-3.196c-.242 0-.402.16-.402.403 0 .238.16.398.402.398zm0 0M14.797 16.008H9.203c-.242 0-.402.16-.402.398 0 .239.16.399.402.399h5.594c.242 0 .402-.16.402-.399 0-.238-.16-.398-.402-.398zm0 0"/>
    <path d="M23.191 21.004c0-1 .278-1.879.68-2.32.117-.118.16-.278.078-.438-.039-.16-.199-.242-.36-.242h-1.198v-1.996a3.208 3.208 0 0 0-2.797-3.172V9.21h.84v.879c0 .402.32.723.718.723h.918c.403 0 .723-.32.723-.723V7.574a.718.718 0 0 0-.723-.719h-.918a.717.717 0 0 0-.718.72v.84h-.84V4.417c0-.242-.16-.402-.399-.402h-.8v-1.2c0-.238-.16-.398-.399-.398v-2c0-.117-.039-.316-.16-.36-.121-.038-.281-.078-.398 0L15.835.86c-.16.079-.238.2-.238.36v1.199c-.243 0-.399.16-.399.398v1.2H8.801v-1.2c0-.238-.156-.398-.399-.398v-1.2A.413.413 0 0 0 8.203.86L6.605.06a.375.375 0 0 0-.402 0 .492.492 0 0 0-.2.359v2c-.237 0-.398.16-.398.398v1.2h-.8c-.239 0-.399.16-.399.402v3.996h-.84v-.84a.717.717 0 0 0-.718-.719H1.93a.718.718 0 0 0-.723.72v2.515c0 .402.32.723.723.723h.957c.402 0 .718-.32.68-.723v-.88h.84v3.626a3.208 3.208 0 0 0-2.798 3.172v1.996H.41c-.16 0-.281.082-.36.242-.081.16-.038.32.079.438.402.441.68 1.32.68 2.32 0 .996-.278 1.879-.68 2.316-.117.121-.117.282-.078.442.039.16.199.238.36.238H23.59c.16 0 .32-.078.36-.238.081-.16.038-.32-.079-.442-.402-.437-.68-1.32-.68-2.316zm-2-13.39h.801v2.398h-.8zM2.81 10.011h-.801V7.613h.8zm13.586-8.555l.8-.398v1.359h-.8zm-.399 1.762h1.598v.797h-1.598zm-9.191-2.16l.8.398v.961h-.8zm-.399 2.16h1.598v.797H6.406zM5.207 4.816h13.586v7.993H5.207zm-2.8 11.192a2.406 2.406 0 0 1 2.398-2.399h14.39a2.406 2.406 0 0 1 2.399 2.399v1.996H2.406zm-.798 2.797h21.223c-.258.55-.414 1.238-.437 1.996H1.605c-.023-.758-.18-1.446-.437-1.996zm-.441 4.394a4.94 4.94 0 0 0 .414-1.597h20.836a4.94 4.94 0 0 0 .414 1.597zm0 0"/>
</svg>
